X:142
T:Green Grows the Rashes
O:No 142 Page 68  William Clarke of Feltwell
M:4/4
L:1/8
K:G
B| G/G/G BA BGGB| A/A/A ed eAAB| cB/ce/ d<g BG| AcBA GEE:|
|: F| G/G/G gf gddg| eaag aeef| gage dBGB| AcBA GEEF| G/G/G gf gddg| eaag aeef| gage d<g B<g| AcBA GEE||

